OneDrive/Desktop/satoshe-sluggers/public/icons/nft-sidebar-categories/hair-green.svg

<svg width="10" height="10" viewBox="0 0 10 10" fill="none" xmlns="http://www.w3.org/2000/svg">
<path fill-rule="evenodd" clip-rule="evenodd" d="M8.51573 5.31804C8.42121 4.72675 8.39502 4.12542 8.27124 3.53877C8.15482 2.9867 7.93714 2.46502 7.55678 2.04417C7.21639 1.66763 6.77629 1.39113 6.30386 1.2159C5.38351 0.874561 4.32499 0.951753 3.43466 1.35023C2.60132 1.72306 1.93665 2.41284 1.54924 3.24065C1.29755 3.77852 1.17102 4.35036 1.1148 4.94057C1.05245 5.59624 1.04571 6.2587 1.02028 6.91669C1.01722 6.99789 1.01277 7.0791 1.0117 7.16032C1.01048 7.24923 1.04617 7.32719 1.07527 7.40994C1.07727 7.41581 1.08018 7.42138 1.0837 7.42663C1.06179 7.4294 1.03989 7.43264 1.01798 7.43619C0.993473 7.44005 0.994545 7.48019 1.01798 7.48497C1.21636 7.52573 1.42025 7.53144 1.622 7.54148C1.8311 7.55198 2.04051 7.55771 2.24991 7.56479C2.45411 7.57174 2.65831 7.57869 2.86251 7.58563C2.96974 7.58934 3.07697 7.59304 3.1842 7.59659C3.23521 7.59829 3.28622 7.60016 3.33739 7.60184C3.36282 7.60279 3.3884 7.60353 3.41383 7.60447C3.43451 7.60509 3.46821 7.61836 3.47036 7.60308C3.47419 7.60541 3.47832 7.60739 3.48276 7.60879C3.48767 7.61142 3.49241 7.6145 3.49701 7.6179C3.52198 7.63519 3.55982 7.63303 3.58509 7.6179C3.58739 7.61651 3.58984 7.61497 3.59229 7.61342C3.61113 7.60215 3.62431 7.58579 3.63166 7.56726C3.73644 7.69478 3.92195 7.55151 3.81472 7.41658C3.75712 7.34402 3.1842 5.56506 3.42134 4.20987L4.37232 4.08297C4.54619 4.06521 4.86972 4.02986 4.86972 4.02986C4.86972 4.02986 4.94892 3.76942 4.97159 3.68558C4.97327 3.67941 4.97496 3.67308 4.9768 3.6669C4.99947 3.70721 5.02229 3.74734 5.04527 3.78748L5.16261 4.02785C5.16261 4.02785 6.89455 3.99868 7.31918 4.00145C7.32638 4.00145 7.36054 4.52173 7.34507 4.75083C7.31382 5.2109 7.28058 5.67065 7.23432 6.12948C7.20479 6.42328 7.13362 6.71141 7.0276 6.98219C6.86012 7.40994 6.37387 7.81652 5.89975 7.81652C5.60463 7.81652 4.93774 7.57563 4.84061 7.52698C4.74349 7.47834 4.68562 7.61111 4.77413 7.66421C4.95342 7.77179 5.44763 8 5.89975 8C6.55635 8 7.05202 7.37212 7.11284 7.28211C7.71073 7.24909 8.32225 7.26436 8.91938 7.32411C8.96947 7.32905 9.01267 7.26822 8.99658 7.22175C8.78212 6.60315 8.61898 5.96508 8.51573 5.31804Z" fill="#3DD27A"/>
</svg>

<svg xmlns="http://www.w3.org/2000/svg" width="10" height="10" fill="none"><path fill="#3DD27A" fill-rule="evenodd" d="M8.516 5.318c-.095-.591-.121-1.193-.245-1.78-.116-.551-.334-1.073-.714-1.494a3.2 3.2 0 0 0-1.253-.828c-.92-.341-1.979-.264-2.87.134-.833.373-1.497 1.063-1.885 1.89-.251.539-.378 1.11-.434 1.7-.063.656-.07 1.319-.095 1.977q-.005.12-.008.243c-.002.09.034.167.063.25l.009.017-.066.01c-.025.003-.023.043 0 .048.198.04.402.046.604.056q.315.015.628.024l.613.02.321.012.153.005.077.002c.02.001.054.014.056 0l.013.005q.008.003.014.009c.025.017.063.015.088 0l.007-.005a.1.1 0 0 0 .04-.046.119.119 0 0 0 .183-.15c-.058-.073-.63-1.852-.394-3.207l.951-.127.498-.053s.079-.26.102-.344l.005-.02.068.121.118.24S6.895 4 7.319 4.002c.007 0 .042.52.026.75-.031.46-.064.92-.11 1.378-.03.294-.101.582-.207.853-.168.428-.654.835-1.128.835-.295 0-.962-.241-1.06-.29-.097-.049-.154.084-.066.137.18.108.674.336 1.126.336.656 0 1.152-.628 1.213-.718.598-.033 1.21-.018 1.806.042.05.005.094-.056.078-.102a11 11 0 0 1-.481-1.904" clip-rule="evenodd"/></svg>
